; generated by PrusaSlicer 2.2.0+win64 on 2020-10-08 at 18:29:49 UTC

; 

; external perimeters extrusion width = 0.45mm
; perimeters extrusion width = 0.45mm
; infill extrusion width = 0.45mm
; solid infill extrusion width = 0.45mm
; top infill extrusion width = 0.40mm
; first layer extrusion width = 0.60mm

M201 X9000 Y9000 Z500 E10000 ; sets maximum accelerations, mm/sec^2
M203 X500 Y500 Z12 E120 ; sets maximum feedrates, mm/sec
M204 P1500 R1500 T1500 ; sets acceleration (P, T) and retract acceleration (R), mm/sec^2
M205 X10.00 Y10.00 Z0.20 E2.50 ; sets the jerk limits, mm/sec
M205 S0 T0 ; sets the minimum extruding and travel feed rate, mm/sec
M107
M104 S200 ; set temperature
G28 ; home all axes
G1 Z5 F5000 ; lift nozzle
M109 S200 ; set temperature and wait for it to be reached
G21 ; set units to millimeters
G90 ; use absolute coordinates
M82 ; use absolute distances for extrusion
G92 E0
; Filament gcode
G1 Z0.200 F3600.000
G1 E-4.00000 F2400.00000
G92 E0
G1 X136.982 Y120.909 F3600.000
G1 E4.00000 F2400.00000
G1 F900.000
G1 X146.882 Y120.914 E4.66135
G1 X147.721 Y121.012 E4.71776
G1 X148.467 Y121.187 E4.76901
G1 X149.095 Y121.403 E4.81333
G1 X149.697 Y121.676 E4.85750
G1 X150.363 Y122.065 E4.90899
G1 X150.985 Y122.526 E4.96070
G1 X151.641 Y123.145 E5.02096
G1 X152.243 Y123.885 E5.08468
G1 X152.696 Y124.616 E5.14220
G1 X152.980 Y125.210 E5.18612
G1 X153.214 Y125.849 E5.23165
G1 X153.385 Y126.506 E5.27700
G1 X153.496 Y127.210 E5.32459
G1 X153.536 Y127.873 E5.36898
G1 X153.512 Y128.556 E5.41458
G1 X153.334 Y129.630 E5.48731
G1 X152.981 Y130.698 E5.56247
G1 X152.426 Y131.751 E5.64202
G1 X151.631 Y132.778 E5.72874
G1 X135.929 Y148.482 E7.21233
G1 X135.286 Y149.034 E7.26895
G1 X134.665 Y149.456 E7.31908
G1 X134.024 Y149.799 E7.36769
G1 X133.432 Y150.046 E7.41052
G1 X132.798 Y150.244 E7.45492
G1 X131.993 Y150.404 E7.50973
G1 X131.172 Y150.470 E7.56473
G1 X130.461 Y150.450 E7.61227
G1 X129.778 Y150.361 E7.65829
G1 X128.962 Y150.164 E7.71440
G1 X128.013 Y149.798 E7.78232
G1 X127.128 Y149.301 E7.85010
G1 X126.221 Y148.589 E7.92712
G1 X110.493 Y132.865 E9.41290
G1 X109.999 Y132.269 E9.46461
G1 X109.593 Y132.778 E9.50808
G1 X93.877 Y148.495 E10.99293
G1 X93.298 Y148.996 E11.04408
G1 X92.631 Y149.454 E11.09812
G1 X92.063 Y149.762 E11.14132
G1 X91.450 Y150.025 E11.18589
G1 X90.730 Y150.251 E11.23628
G1 X89.953 Y150.404 E11.28921
G1 X89.165 Y150.469 E11.34202
G1 X88.424 Y150.450 E11.39154
G1 X87.741 Y150.361 E11.43757
G1 X87.026 Y150.195 E11.48661
G1 X86.124 Y149.867 E11.55068
G1 X85.243 Y149.400 E11.61732
G1 X84.158 Y148.567 E11.70868
G1 X68.455 Y132.865 E13.19223
G1 X67.749 Y132.015 E13.26605
G1 X67.350 Y131.378 E13.31626
G1 X67.023 Y130.706 E13.36619
G1 X66.698 Y129.755 E13.43334
G1 X66.511 Y128.768 E13.50040
G1 X66.464 Y127.951 E13.55508
G1 X66.512 Y127.129 E13.61012
G1 X66.710 Y126.107 E13.67967
G1 X66.956 Y125.367 E13.73173
G1 X67.279 Y124.662 E13.78353
G1 X67.905 Y123.683 E13.86115
G1 X68.426 Y123.074 E13.91472
G1 X68.989 Y122.547 E13.96621
G1 X69.799 Y121.962 E14.03301
G1 X70.516 Y121.572 E14.08748
G1 X71.253 Y121.275 E14.14060
G1 X72.030 Y121.061 E14.19447
G1 X72.843 Y120.935 E14.24938
G1 X73.454 Y120.902 E14.29030
G1 X83.015 Y120.905 E14.92901
G1 X68.455 Y106.346 E16.30454
G1 X67.772 Y105.526 E16.37584
G1 X67.350 Y104.857 E16.42871
G1 X67.009 Y104.155 E16.48084
G1 X66.708 Y103.271 E16.54323
G1 X66.511 Y102.244 E16.61307
G1 X66.464 Y101.431 E16.66751
G1 X66.512 Y100.612 E16.72232
G1 X66.721 Y99.547 E16.79477
G1 X66.958 Y98.843 E16.84439
G1 X67.278 Y98.145 E16.89570
G1 X67.906 Y97.163 E16.97361
G1 X68.450 Y96.530 E17.02935
G1 X69.068 Y95.963 E17.08540
G1 X69.770 Y95.460 E17.14308
G1 X70.573 Y95.026 E17.20406
G1 X71.283 Y94.746 E17.25503
G1 X72.001 Y94.548 E17.30477
G1 X72.761 Y94.424 E17.35621
G1 X73.454 Y94.383 E17.40262
G1 X104.846 Y94.395 E19.49980
G1 X105.686 Y94.493 E19.55627
G1 X106.457 Y94.676 E19.60921
G1 X107.060 Y94.886 E19.65185
G1 X107.660 Y95.158 E19.69585
G1 X108.325 Y95.546 E19.74735
G1 X108.997 Y96.049 E19.80339
G1 X109.604 Y96.627 E19.85942
G1 X109.991 Y97.102 E19.90032
G1 X110.485 Y96.533 E19.95069
G1 X111.078 Y95.986 E20.00459
G1 X111.838 Y95.442 E20.06705
G1 X112.556 Y95.052 E20.12160
G1 X113.322 Y94.746 E20.17673
G1 X114.099 Y94.535 E20.23050
G1 X114.853 Y94.418 E20.28150
G1 X115.506 Y94.383 E20.32522
G1 X146.883 Y94.395 E22.42133
G1 X147.722 Y94.493 E22.47779
G1 X148.577 Y94.701 E22.53658
G1 X149.122 Y94.895 E22.57518
G1 X149.648 Y95.132 E22.61376
G1 X150.310 Y95.511 E22.66470
G1 X151.034 Y96.048 E22.72494
G1 X151.663 Y96.650 E22.78310
G1 X152.221 Y97.334 E22.84206
G1 X152.679 Y98.066 E22.89976
G1 X152.978 Y98.686 E22.94575
G1 X153.215 Y99.332 E22.99170
G1 X153.408 Y100.097 E23.04439
G1 X153.494 Y100.667 E23.08293
G1 X153.534 Y101.244 E23.12156
G1 X153.500 Y102.144 E23.18175
G1 X153.334 Y103.112 E23.24732
G1 X152.981 Y104.178 E23.32236
G1 X152.398 Y105.275 E23.40535
G1 X151.631 Y106.259 E23.48873
G1 X137.025 Y120.866 E24.86870
G1 X135.690 Y121.444 F3600.000
G1 F900.000
G1 X146.835 Y121.448 E25.61329
G1 X147.643 Y121.542 E25.66759
G1 X148.331 Y121.705 E25.71483
G1 X148.886 Y121.897 E25.75407
G1 X149.440 Y122.147 E25.79469
G1 X150.056 Y122.504 E25.84226
G1 X150.653 Y122.946 E25.89186
G1 X151.259 Y123.521 E25.94772
G1 X151.796 Y124.181 E26.00455
G1 X152.233 Y124.886 E26.05990
G1 X152.491 Y125.428 E26.10002
G1 X152.699 Y125.997 E26.14052
G1 X152.864 Y126.629 E26.18411
G1 X152.963 Y127.256 E26.22652
G1 X153.000 Y127.868 E26.26747
G1 X152.977 Y128.519 E26.31101
G1 X152.809 Y129.520 E26.37882
G1 X152.480 Y130.506 E26.44829
G1 X151.964 Y131.480 E26.52189
G1 X151.241 Y132.411 E26.60065
G1 X135.557 Y148.096 E28.08248
G1 X134.972 Y148.601 E28.13410
G1 X134.399 Y148.991 E28.18040
G1 X133.805 Y149.310 E28.22543
G1 X133.238 Y149.547 E28.26650
G1 X132.653 Y149.728 E28.30741
G1 X131.905 Y149.875 E28.35831
G1 X131.146 Y149.934 E28.40922
G1 X130.491 Y149.915 E28.45301
G1 X129.888 Y149.837 E28.49358
G1 X129.136 Y149.657 E28.54528
G1 X128.256 Y149.321 E28.60815
G1 X127.442 Y148.866 E28.67051
G1 X126.588 Y148.199 E28.74286
G1 X110.881 Y132.496 E30.22664
G1 X109.989 Y131.414 E30.32031
G1 X109.203 Y132.411 E30.40517
G1 X93.505 Y148.109 E31.88830
G1 X92.982 Y148.564 E31.93458
G1 X92.363 Y148.990 E31.98478
G1 X91.819 Y149.285 E32.02615
G1 X91.252 Y149.527 E32.06729
G1 X90.585 Y149.736 E32.11397
G1 X89.866 Y149.875 E32.16293
G1 X89.137 Y149.934 E32.21177
G1 X88.453 Y149.915 E32.25748
G1 X87.824 Y149.832 E32.29986
G1 X87.164 Y149.677 E32.34515
G1 X86.326 Y149.370 E32.40476
G1 X85.515 Y148.938 E32.46619
G1 X84.525 Y148.176 E32.54964
G1 X68.842 Y132.495 E34.03123
G1 X68.193 Y131.714 E34.09905
G1 X67.825 Y131.129 E34.14521
G1 X67.511 Y130.486 E34.19304
G1 X67.220 Y129.635 E34.25312
G1 X67.045 Y128.719 E34.31540
G1 X67.000 Y127.936 E34.36779
G1 X67.046 Y127.179 E34.41848
G1 X67.224 Y126.258 E34.48117
G1 X67.449 Y125.576 E34.52910
G1 X67.758 Y124.903 E34.57860
G1 X68.345 Y123.989 E34.65117
G1 X68.822 Y123.435 E34.70001
G1 X69.341 Y122.951 E34.74742
G1 X70.097 Y122.407 E34.80967
G1 X70.756 Y122.051 E34.85968
G1 X71.438 Y121.778 E34.90873
G1 X72.157 Y121.581 E34.95855
G1 X72.885 Y121.469 E35.00775
G1 X73.461 Y121.438 E35.04633
G1 X84.309 Y121.441 E35.77098
G1 X68.842 Y105.976 E37.23215
G1 X68.215 Y105.226 E37.29746
G1 X67.811 Y104.584 E37.34810
G1 X67.499 Y103.937 E37.39614
G1 X67.230 Y103.151 E37.45158
G1 X67.040 Y102.161 E37.51892
G1 X67.000 Y101.417 E37.56875
G1 X67.041 Y100.697 E37.61693
G1 X67.243 Y99.668 E37.68693
G1 X67.460 Y99.029 E37.73208
G1 X67.739 Y98.418 E37.77695
G1 X68.347 Y97.468 E37.85226
G1 X68.844 Y96.892 E37.90310
G1 X69.393 Y96.389 E37.95284
G1 X70.068 Y95.906 E38.00831
G1 X70.786 Y95.518 E38.06279
G1 X71.440 Y95.258 E38.10980
G1 X72.129 Y95.068 E38.15754
G1 X72.832 Y94.955 E38.20511
G1 X73.461 Y94.919 E38.24725
G1 X104.830 Y94.930 E40.34284
G1 X105.606 Y95.023 E40.39508
G1 X106.318 Y95.194 E40.44399
G1 X106.871 Y95.387 E40.48311
G1 X107.425 Y95.639 E40.52379
G1 X108.017 Y95.985 E40.56955
G1 X108.663 Y96.468 E40.62346
G1 X109.220 Y97.001 E40.67498
G1 X110.028 Y98.010 E40.76129
G1 X110.384 Y97.468 E40.80461
G1 X110.860 Y96.915 E40.85337
G1 X111.404 Y96.412 E40.90284
G1 X112.136 Y95.887 E40.96300
G1 X112.796 Y95.531 E41.01313
G1 X113.478 Y95.258 E41.06220
G1 X114.197 Y95.062 E41.11196
G1 X114.896 Y94.952 E41.15927
G1 X115.514 Y94.918 E41.20059
G1 X146.867 Y94.930 E43.29513
G1 X147.642 Y95.023 E43.34733
G1 X148.410 Y95.210 E43.40012
G1 X148.931 Y95.396 E43.43706
G1 X149.415 Y95.615 E43.47256
G1 X150.029 Y95.968 E43.51988
G1 X150.677 Y96.447 E43.57374
G1 X151.260 Y97.002 E43.62749
G1 X151.776 Y97.633 E43.68193
G1 X152.217 Y98.338 E43.73748
G1 X152.480 Y98.884 E43.77796
G1 X152.699 Y99.478 E43.82028
G1 X152.880 Y100.190 E43.86935
G1 X152.963 Y100.736 E43.90624
G1 X152.999 Y101.266 E43.94176
G1 X152.969 Y102.071 E43.99557
G1 X152.810 Y103.000 E44.05854
G1 X152.480 Y103.986 E44.12798
G1 X151.937 Y105.002 E44.20491
G1 X151.240 Y105.892 E44.28043
G1 X135.732 Y121.402 E45.74568
G1 X134.279 Y121.979 F3600.000
G1 F900.000
G1 X146.819 Y121.983 E46.58344
G1 X147.563 Y122.072 E46.63350
G1 X148.192 Y122.223 E46.67673
G1 X148.698 Y122.399 E46.71251
G1 X149.206 Y122.629 E46.74977
G1 X149.773 Y122.959 E46.79358
G1 X150.320 Y123.366 E46.83915
G1 X150.856 Y123.874 E46.88847
G1 X151.351 Y124.478 E46.94064
G1 X151.769 Y125.154 E46.99375
G1 X152.001 Y125.646 E47.03004
G1 X152.184 Y126.145 E47.06557
G1 X152.342 Y126.751 E47.10740
G1 X152.429 Y127.302 E47.14468
G1 X152.464 Y127.862 E47.18217
G1 X152.442 Y128.482 E47.22360
G1 X152.285 Y129.409 E47.28642
G1 X151.980 Y130.313 E47.35019
G1 X151.503 Y131.207 E47.41784
G1 X150.851 Y132.044 E47.48872
G1 X135.185 Y147.711 E48.96883
G1 X134.656 Y148.167 E49.01550
G1 X134.132 Y148.527 E49.05798
G1 X133.586 Y148.821 E49.09943
G1 X133.067 Y149.039 E49.13704
G1 X132.509 Y149.212 E49.17607
G1 X131.819 Y149.346 E49.22299
G1 X131.120 Y149.399 E49.26981
G1 X130.521 Y149.380 E49.30987
G1 X129.998 Y149.312 E49.34513
G1 X129.308 Y149.149 E49.39245
G1 X128.498 Y148.843 E49.45029
G1 X127.754 Y148.430 E49.50718
G1 X126.955 Y147.808 E49.57480
G1 X111.267 Y132.125 E51.05670
G1 X110.676 Y131.415 E51.11845
G1 X110.324 Y130.856 E51.16259
G1 X110.006 Y130.209 E51.21077
G1 X109.439 Y131.245 E51.28970
G1 X108.812 Y132.044 E51.35750
G1 X93.133 Y147.724 E52.83890
G1 X92.642 Y148.149 E52.88227
G1 X92.094 Y148.526 E52.92673
G1 X91.596 Y148.798 E52.96462
G1 X91.055 Y149.029 E53.00395
G1 X90.441 Y149.219 E53.04685
G1 X89.780 Y149.346 E53.09184
G1 X89.110 Y149.399 E53.13670
G1 X88.483 Y149.380 E53.17865
G1 X87.934 Y149.307 E53.21565
G1 X87.303 Y149.159 E53.25894
G1 X86.529 Y148.875 E53.31401
G1 X85.788 Y148.477 E53.37024
G1 X84.891 Y147.786 E53.44585
G1 X69.229 Y132.125 E54.92550
G1 X68.637 Y131.414 E54.98731
G1 X68.287 Y130.857 E55.03126
G1 X68.000 Y130.267 E55.07509
G1 X67.743 Y129.514 E55.12822
G1 X67.579 Y128.669 E55.18576
G1 X67.535 Y127.953 E55.23371
G1 X67.579 Y127.229 E55.28211
G1 X67.739 Y126.408 E55.33798
G1 X67.942 Y125.786 E55.38175
G1 X68.237 Y125.143 E55.42895
G1 X68.764 Y124.323 E55.49408
G1 X69.198 Y123.816 E55.53868
G1 X69.694 Y123.354 E55.58393
G1 X70.368 Y122.869 E55.63942
G1 X70.971 Y122.542 E55.68526
G1 X71.596 Y122.290 E55.73024
G1 X72.255 Y122.108 E55.77597
G1 X72.928 Y122.003 E55.82142
G1 X73.469 Y121.973 E55.85763
G1 X85.213 Y121.977 E56.64224
G1 X85.338 Y121.616 E56.66776
G1 X84.892 Y121.267 E56.70559
G1 X69.229 Y105.606 E58.18528
G1 X68.638 Y104.897 E58.24696
G1 X68.286 Y104.337 E58.29111
G1 X68.000 Y103.747 E58.33491
G1 X67.743 Y102.996 E58.38797
G1 X67.574 Y102.113 E58.44802
G1 X67.535 Y101.432 E58.49359
G1 X67.575 Y100.746 E58.53950
G1 X67.756 Y99.823 E58.60236
G1 X67.953 Y99.238 E58.64356
G1 X68.219 Y98.657 E58.68623
G1 X68.765 Y97.802 E58.75400
G1 X69.219 Y97.275 E58.80050
G1 X69.720 Y96.814 E58.84596
G1 X70.339 Y96.368 E58.89697
G1 X70.999 Y96.010 E58.94710
G1 X71.623 Y95.762 E58.99200
G1 X72.255 Y95.589 E59.03577
G1 X72.902 Y95.486 E59.07949
G1 X73.469 Y95.454 E59.11742
G1 X104.813 Y95.466 E61.21142
G1 X105.526 Y95.553 E61.25935
G1 X106.179 Y95.711 E61.30425
G1 X106.682 Y95.888 E61.33988
G1 X107.168 Y96.109 E61.37559
G1 X107.710 Y96.424 E61.41742
G1 X108.306 Y96.867 E61.46706
G1 X108.818 Y97.355 E61.51426
G1 X109.311 Y97.957 E61.56630
G1 X110.026 Y99.138 E61.65855
G1 X110.292 Y98.594 E61.69903
G1 X110.804 Y97.802 E61.76202
G1 X111.237 Y97.296 E61.80652
G1 X111.731 Y96.836 E61.85160
G1 X112.405 Y96.350 E61.90714
G1 X113.036 Y96.010 E61.95504
G1 X113.661 Y95.762 E61.99994
G1 X114.322 Y95.582 E62.04570
G1 X114.939 Y95.486 E62.08742
G1 X115.521 Y95.454 E62.12636
G1 X146.850 Y95.466 E64.21928
G1 X147.562 Y95.552 E64.26718
G1 X148.244 Y95.719 E64.31410
G1 X148.721 Y95.888 E64.34790
G1 X149.182 Y96.097 E64.38174
G1 X149.747 Y96.423 E64.42534
G1 X150.344 Y96.867 E64.47503
G1 X150.856 Y97.355 E64.52222
G1 X151.350 Y97.959 E64.57438
G1 X151.754 Y98.608 E64.62545
G1 X151.991 Y99.104 E64.66217
G1 X152.184 Y99.625 E64.69929
G1 X152.353 Y100.284 E64.74477
G1 X152.429 Y100.784 E64.77852
G1 X152.463 Y101.289 E64.81237
G1 X152.439 Y101.998 E64.85978
G1 X152.285 Y102.889 E64.92013
G1 X151.980 Y103.793 E64.98387
G1 X151.477 Y104.727 E65.05475
G1 X150.851 Y105.524 E65.12250
G1 X135.185 Y121.191 E66.60261
G1 X134.324 Y121.940 E66.67882
G1 X132.722 Y122.086 F3600.000
G1 F900.000
G1 X132.810 Y122.514 E66.70805
G1 X146.802 Y122.519 E67.64283
G1 X147.482 Y122.602 E67.68858
G1 X148.052 Y122.740 E67.72779
G1 X148.509 Y122.900 E67.76012
G1 X148.972 Y123.111 E67.79409
G1 X149.465 Y123.398 E67.83222
G1 X149.988 Y123.787 E67.87573
G1 X150.453 Y124.228 E67.91857
G1 X150.905 Y124.776 E67.96603
G1 X151.305 Y125.423 E68.01684
G1 X151.511 Y125.861 E68.04920
G1 X151.677 Y126.316 E68.08151
G1 X151.820 Y126.872 E68.11989
G1 X151.895 Y127.349 E68.15218
G1 X151.928 Y127.857 E68.18615
G1 X151.908 Y128.444 E68.22542
G1 X151.761 Y129.296 E68.28318
G1 X151.480 Y130.120 E68.34129
G1 X151.066 Y130.896 E68.40011
G1 X150.460 Y131.677 E68.46611
G1 X134.813 Y147.325 E69.94442
G1 X134.318 Y147.752 E69.98810
G1 X133.864 Y148.062 E70.02485
G1 X133.366 Y148.333 E70.06270
G1 X132.872 Y148.540 E70.09850
G1 X132.365 Y148.696 E70.13391
G1 X131.733 Y148.817 E70.17690
G1 X131.123 Y148.863 E70.21777
G1 X130.552 Y148.845 E70.25597
G1 X130.082 Y148.783 E70.28765
G1 X129.449 Y148.632 E70.33109
G1 X128.739 Y148.364 E70.38178
G1 X128.065 Y147.993 E70.43321
G1 X127.322 Y147.417 E70.49602
G1 X111.654 Y131.755 E71.97600
G1 X111.119 Y131.115 E72.03172
G1 X110.786 Y130.584 E72.07357
G1 X110.527 Y130.048 E72.11338
G1 X110.303 Y129.393 E72.15962
G1 X110.223 Y129.011 E72.18567
G1 X109.812 Y128.988 E72.21317
G1 X109.441 Y130.120 E72.29279
G1 X109.003 Y130.934 E72.35454
G1 X108.422 Y131.677 E72.41751
G1 X92.761 Y147.338 E73.89715
G1 X92.303 Y147.734 E73.93759
G1 X91.825 Y148.063 E73.97633
G1 X91.351 Y148.321 E74.01241
G1 X90.859 Y148.531 E74.04817
G1 X90.299 Y148.703 E74.08730
G1 X89.696 Y148.817 E74.12831
G1 X89.085 Y148.863 E74.16921
G1 X88.514 Y148.845 E74.20740
G1 X88.043 Y148.783 E74.23911
G1 X87.442 Y148.642 E74.28037
G1 X86.734 Y148.379 E74.33082
G1 X86.062 Y148.016 E74.38185
G1 X85.258 Y147.395 E74.44971
G1 X69.617 Y131.755 E75.92740
G1 X69.060 Y131.086 E75.98554
G1 X68.762 Y130.609 E76.02313
G1 X68.501 Y130.077 E76.06267
G1 X68.255 Y129.359 E76.11341
G1 X68.112 Y128.618 E76.16383
G1 X68.071 Y127.968 E76.20731
G1 X68.113 Y127.280 E76.25336
G1 X68.261 Y126.529 E76.30451
G1 X68.446 Y125.969 E76.34392
G1 X68.715 Y125.385 E76.38687
G1 X69.183 Y124.657 E76.44472
G1 X69.575 Y124.197 E76.48503
G1 X70.046 Y123.758 E76.52809
G1 X70.638 Y123.332 E76.57681
G1 X71.213 Y123.020 E76.62045
G1 X71.780 Y122.793 E76.66127
G1 X72.382 Y122.629 E76.70297
G1 X72.970 Y122.537 E76.74276
G1 X73.476 Y122.509 E76.77659
G1 X87.223 Y122.513 E77.69494
G1 X87.303 Y122.074 E77.72475
G1 X86.701 Y121.845 E77.76781
G1 X86.062 Y121.497 E77.81641
G1 X85.258 Y120.876 E77.88430
G1 X69.616 Y105.235 E79.36202
G1 X69.081 Y104.595 E79.41777
G1 X68.762 Y104.089 E79.45773
G1 X68.489 Y103.528 E79.49942
G1 X68.265 Y102.875 E79.54553
G1 X68.108 Y102.064 E79.60071
