; generated by PrusaSlicer 2.2.0+win64 on 2020-10-08 at 18:30:13 UTC

; 

; external perimeters extrusion width = 0.45mm
; perimeters extrusion width = 0.45mm
; infill extrusion width = 0.45mm
; solid infill extrusion width = 0.45mm
; top infill extrusion width = 0.40mm
; first layer extrusion width = 0.60mm

M201 X9000 Y9000 Z500 E10000 ; sets maximum accelerations, mm/sec^2
M203 X500 Y500 Z12 E120 ; sets maximum feedrates, mm/sec
M204 P1500 R1500 T1500 ; sets acceleration (P, T) and retract acceleration (R), mm/sec^2
M205 X10.00 Y10.00 Z0.20 E2.50 ; sets the jerk limits, mm/sec
M205 S0 T0 ; sets the minimum extruding and travel feed rate, mm/sec
M107
M104 S200 ; set temperature
G28 ; home all axes
G1 Z5 F5000 ; lift nozzle
M109 S200 ; set temperature and wait for it to be reached
G21 ; set units to millimeters
G90 ; use absolute coordinates
M82 ; use absolute distances for extrusion
G92 E0
; Filament gcode
G1 Z0.200 F3600.000
G1 E-4.00000 F2400.00000
G92 E0
G1 X89.922 Y96.933 F3600.000
G1 E4.00000 F2400.00000
G1 F900.000
G1 X90.478 Y96.500 E4.04704
G1 X91.069 Y96.126 E4.09378
G1 X91.676 Y95.821 E4.13913
G1 X92.332 Y95.568 E4.18612
G1 X93.011 Y95.382 E4.23315
G1 X93.667 Y95.269 E4.27760
G1 X94.349 Y95.217 E4.32329
G1 X125.839 Y95.224 E6.42705
G1 X126.906 Y95.365 E6.49891
G1 X127.826 Y95.623 E6.56273
G1 X128.509 Y95.906 E6.61214
G1 X129.152 Y96.256 E6.66104
G1 X129.684 Y96.617 E6.70402
G1 X130.279 Y97.114 E6.75578
G1 X130.826 Y97.687 E6.80871
G1 X131.227 Y98.202 E6.85234
G1 X131.555 Y98.713 E6.89288
G1 X131.883 Y99.345 E6.94044
G1 X132.097 Y99.872 E6.97843
G1 X132.269 Y100.411 E7.01623
G1 X132.437 Y101.210 E7.07080
G1 X132.512 Y101.999 E7.12372
G1 X132.496 Y102.808 E7.17777
G1 X132.361 Y103.742 E7.24081
G1 X132.084 Y104.696 E7.30722
G1 X131.768 Y105.430 E7.36055
G1 X131.326 Y106.189 E7.41923
G1 X130.613 Y107.091 E7.49606
G1 X114.910 Y122.795 E8.97969
G1 X114.290 Y123.330 E9.03436
G1 X113.647 Y123.769 E9.08639
G1 X113.062 Y124.085 E9.13085
G1 X112.470 Y124.338 E9.17383
G1 X111.708 Y124.575 E9.22711
G1 X110.948 Y124.720 E9.27886
G1 X110.213 Y124.781 E9.32808
G1 X109.446 Y124.763 E9.37938
G1 X108.167 Y124.544 E9.46602
G1 X107.367 Y124.274 E9.52245
G1 X106.589 Y123.905 E9.57999
G1 X105.892 Y123.463 E9.63512
G1 X105.230 Y122.927 E9.69200
G1 X89.286 Y106.979 E11.19854
G1 X88.592 Y106.060 E11.27548
G1 X88.224 Y105.413 E11.32521
G1 X87.865 Y104.554 E11.38741
G1 X87.615 Y103.626 E11.45164
G1 X87.507 Y102.847 E11.50413
G1 X87.487 Y102.060 E11.55675
G1 X87.557 Y101.257 E11.61057
G1 X87.711 Y100.489 E11.66291
G1 X87.974 Y99.684 E11.71949
G1 X88.360 Y98.863 E11.78009
G1 X88.858 Y98.085 E11.84186
G1 X89.413 Y97.421 E11.89965
G1 X89.879 Y96.974 E11.94276
G1 X90.264 Y97.346 F3600.000
G1 F900.000
G1 X90.777 Y96.945 E11.98626
G1 X91.322 Y96.598 E12.02946
G1 X91.881 Y96.316 E12.07127
G1 X92.512 Y96.073 E12.11642
G1 X93.139 Y95.903 E12.15982
G1 X93.744 Y95.799 E12.20087
G1 X94.359 Y95.753 E12.24202
G1 X125.821 Y95.760 E14.34390
G1 X126.815 Y95.893 E14.41088
G1 X127.664 Y96.134 E14.46981
G1 X128.289 Y96.395 E14.51511
G1 X128.863 Y96.707 E14.55875
G1 X129.352 Y97.038 E14.59818
G1 X129.903 Y97.496 E14.64607
G1 X130.412 Y98.027 E14.69518
G1 X130.797 Y98.521 E14.73703
G1 X131.098 Y98.991 E14.77429
G1 X131.392 Y99.559 E14.81704
G1 X131.590 Y100.044 E14.85206
G1 X131.754 Y100.560 E14.88823
G1 X131.905 Y101.277 E14.93715
G1 X131.976 Y102.006 E14.98606
G1 X131.963 Y102.748 E15.03569
G1 X131.834 Y103.646 E15.09628
G1 X131.575 Y104.529 E15.15775
G1 X131.283 Y105.202 E15.20675
G1 X130.894 Y105.872 E15.25853
G1 X130.223 Y106.723 E15.33093
G1 X114.538 Y122.409 E16.81286
G1 X113.975 Y122.897 E16.86259
G1 X113.379 Y123.305 E16.91084
G1 X112.839 Y123.598 E16.95186
G1 X112.272 Y123.840 E16.99308
G1 X111.592 Y124.052 E17.04065
G1 X110.887 Y124.188 E17.08859
G1 X110.210 Y124.246 E17.13403
G1 X109.515 Y124.231 E17.18048
G1 X108.318 Y124.029 E17.26156
G1 X107.553 Y123.772 E17.31545
G1 X106.834 Y123.429 E17.36868
G1 X106.217 Y123.037 E17.41753
G1 X105.578 Y122.520 E17.47244
G1 X89.678 Y106.614 E18.97488
G1 X89.031 Y105.753 E19.04687
G1 X88.698 Y105.164 E19.09206
G1 X88.377 Y104.398 E19.14754
G1 X88.137 Y103.503 E19.20941
G1 X88.040 Y102.790 E19.25747
G1 X88.023 Y102.063 E19.30609
G1 X88.089 Y101.320 E19.35590
G1 X88.233 Y100.612 E19.40419
G1 X88.477 Y99.867 E19.45654
G1 X88.836 Y99.108 E19.51262
G1 X89.299 Y98.389 E19.56980
G1 X89.795 Y97.797 E19.62138
G1 X90.220 Y97.388 E19.66081
G1 X90.606 Y97.758 F3600.000
G1 F900.000
G1 X91.076 Y97.389 E19.70078
G1 X91.577 Y97.070 E19.74044
G1 X92.088 Y96.811 E19.77872
G1 X92.667 Y96.586 E19.82023
G1 X93.243 Y96.428 E19.86012
G1 X93.798 Y96.332 E19.89776
G1 X94.369 Y96.288 E19.93600
G1 X125.803 Y96.296 E22.03594
G1 X126.723 Y96.421 E22.09798
G1 X127.500 Y96.644 E22.15200
G1 X128.069 Y96.884 E22.19323
G1 X128.575 Y97.159 E22.23174
G1 X129.021 Y97.459 E22.26765
G1 X129.528 Y97.879 E22.31165
G1 X129.998 Y98.367 E22.35690
G1 X130.366 Y98.840 E22.39693
G1 X130.639 Y99.268 E22.43087
G1 X130.900 Y99.773 E22.46886
G1 X131.090 Y100.237 E22.50232
G1 X131.239 Y100.708 E22.53535
G1 X131.378 Y101.372 E22.58063
G1 X131.440 Y102.013 E22.62368
G1 X131.431 Y102.691 E22.66896
G1 X131.314 Y103.514 E22.72451
G1 X131.066 Y104.362 E22.78351
G1 X130.799 Y104.974 E22.82811
G1 X130.461 Y105.556 E22.87311
G1 X129.832 Y106.356 E22.94104
G1 X114.166 Y122.024 E24.42123
G1 X113.636 Y122.481 E24.46799
G1 X113.111 Y122.841 E24.51048
G1 X112.595 Y123.121 E24.54971
G1 X112.075 Y123.342 E24.58749
G1 X111.476 Y123.529 E24.62941
G1 X110.800 Y123.659 E24.67540
G1 X110.205 Y123.710 E24.71530
G1 X109.582 Y123.699 E24.75692
G1 X108.467 Y123.514 E24.83243
G1 X107.768 Y123.281 E24.88165
G1 X107.106 Y122.967 E24.93060
G1 X106.541 Y122.610 E24.97521
G1 X105.926 Y122.112 E25.02810
G1 X90.071 Y106.249 E26.52642
G1 X89.470 Y105.447 E26.59338
G1 X89.173 Y104.915 E26.63406
G1 X88.890 Y104.241 E26.68290
G1 X88.659 Y103.382 E26.74237
G1 X88.573 Y102.735 E26.78593
G1 X88.559 Y102.067 E26.83058
G1 X88.621 Y101.384 E26.87638
G1 X88.754 Y100.736 E26.92061
G1 X88.980 Y100.052 E26.96872
G1 X89.312 Y99.355 E27.02030
G1 X89.740 Y98.694 E27.07289
G1 X90.177 Y98.172 E27.11837
G1 X90.562 Y97.800 E27.15416
G1 X90.968 Y98.153 F3600.000
G1 F900.000
G1 X91.376 Y97.833 E27.18886
G1 X91.832 Y97.541 E27.22502
G1 X92.296 Y97.304 E27.25978
G1 X92.823 Y97.098 E27.29763
G1 X93.347 Y96.954 E27.33396
G1 X93.877 Y96.862 E27.36984
G1 X94.379 Y96.824 E27.40347
G1 X125.784 Y96.831 E29.50148
G1 X126.629 Y96.949 E29.55850
G1 X127.335 Y97.154 E29.60759
G1 X127.847 Y97.371 E29.64478
G1 X128.288 Y97.611 E29.67832
G1 X128.691 Y97.881 E29.71073
G1 X129.154 Y98.263 E29.75084
G1 X129.585 Y98.707 E29.79217
G1 X129.935 Y99.158 E29.83032
G1 X130.180 Y99.545 E29.86090
G1 X130.410 Y99.988 E29.89425
G1 X130.583 Y100.409 E29.92467
G1 X130.725 Y100.857 E29.95604
G1 X130.846 Y101.439 E29.99579
G1 X130.904 Y102.023 E30.03495
G1 X130.898 Y102.633 E30.07575
G1 X130.787 Y103.419 E30.12876
G1 X130.557 Y104.193 E30.18268
G1 X130.327 Y104.720 E30.22109
G1 X130.027 Y105.242 E30.26132
G1 X129.442 Y105.989 E30.32469
G1 X113.794 Y121.638 E31.80311
G1 X113.298 Y122.066 E31.84688
G1 X112.843 Y122.377 E31.88371
G1 X112.373 Y122.633 E31.91944
G1 X111.878 Y122.844 E31.95544
G1 X111.359 Y123.006 E31.99169
G1 X110.712 Y123.131 E32.03572
G1 X110.198 Y123.174 E32.07021
G1 X109.647 Y123.167 E32.10700
G1 X108.616 Y122.999 E32.17683
G1 X107.954 Y122.778 E32.22346
G1 X107.352 Y122.490 E32.26803
G1 X106.866 Y122.184 E32.30638
G1 X106.274 Y121.705 E32.35728
G1 X90.464 Y105.885 E33.85145
G1 X89.911 Y105.142 E33.91330
G1 X89.648 Y104.668 E33.94948
G1 X89.402 Y104.083 E33.99189
G1 X89.187 Y103.293 E34.04660
G1 X89.106 Y102.680 E34.08791
G1 X89.094 Y102.072 E34.12850
G1 X89.152 Y101.450 E34.17028
G1 X89.275 Y100.861 E34.21047
G1 X89.483 Y100.238 E34.25433
G1 X89.787 Y99.603 E34.30139
G1 X90.180 Y99.000 E34.34942
G1 X90.559 Y98.548 E34.38887
G1 X90.925 Y98.195 E34.42280
G1 X91.311 Y98.565 F3600.000
G1 F900.000
G1 X91.677 Y98.276 E34.45394
G1 X92.109 Y97.999 E34.48827
G1 X92.525 Y97.789 E34.51941
G1 X93.004 Y97.603 E34.55374
G1 X93.453 Y97.479 E34.58483
G1 X93.931 Y97.395 E34.61729
G1 X94.389 Y97.360 E34.64796
G1 X125.764 Y97.367 E36.74398
G1 X126.533 Y97.476 E36.79588
G1 X127.167 Y97.663 E36.84004
G1 X127.624 Y97.858 E36.87323
G1 X128.002 Y98.064 E36.90195
G1 X128.362 Y98.304 E36.93089
G1 X128.781 Y98.648 E36.96712
G1 X129.171 Y99.048 E37.00444
G1 X129.504 Y99.476 E37.04067
G1 X129.721 Y99.820 E37.06784
G1 X129.919 Y100.203 E37.09662
G1 X130.083 Y100.602 E37.12547
G1 X130.209 Y101.004 E37.15359
G1 X130.319 Y101.534 E37.18974
G1 X130.369 Y102.034 E37.22330
G1 X130.365 Y102.577 E37.25957
G1 X130.259 Y103.324 E37.30996
G1 X130.049 Y104.023 E37.35873
G1 X129.854 Y104.467 E37.39117
G1 X129.592 Y104.929 E37.42661
G1 X129.051 Y105.622 E37.48535
G1 X113.422 Y121.252 E38.96201
G1 X112.982 Y121.633 E39.00088
G1 X112.574 Y121.913 E39.03395
G1 X112.129 Y122.156 E39.06783
G1 X111.682 Y122.345 E39.10024
G1 X111.216 Y122.489 E39.13283
G1 X110.627 Y122.602 E39.17290
G1 X110.168 Y122.639 E39.20367
G1 X109.675 Y122.632 E39.23659
G1 X108.763 Y122.484 E39.29830
G1 X108.168 Y122.287 E39.34020
G1 X107.622 Y122.028 E39.38055
G1 X107.189 Y121.757 E39.41467
G1 X106.642 Y121.316 E39.46160
G1 X90.857 Y105.520 E40.95344
G1 X90.353 Y104.839 E41.01008
G1 X90.124 Y104.423 E41.04179
G1 X89.914 Y103.924 E41.07795
G1 X89.716 Y103.202 E41.12794
G1 X89.641 Y102.652 E41.16502
G1 X89.629 Y102.107 E41.20149
G1 X89.684 Y101.515 E41.24117
G1 X89.796 Y100.988 E41.27720
G1 X89.985 Y100.425 E41.31683
G1 X90.262 Y99.852 E41.35936
G1 X90.618 Y99.308 E41.40284
G1 X90.942 Y98.923 E41.43643
G1 X91.268 Y98.607 E41.46674
G1 X91.674 Y98.959 F3600.000
G1 F900.000
G1 X91.977 Y98.720 E41.49253
G1 X92.387 Y98.457 E41.52507
G1 X92.731 Y98.283 E41.55085
G1 X93.185 Y98.107 E41.58340
G1 X93.558 Y98.004 E41.60920
G1 X94.011 Y97.925 E41.63993
G1 X94.399 Y97.895 E41.66595
G1 X125.744 Y97.902 E43.75996
G1 X126.436 Y98.003 E43.80665
G1 X126.999 Y98.171 E43.84591
G1 X127.379 Y98.335 E43.87353
G1 X127.734 Y98.529 E43.90060
G1 X128.053 Y98.741 E43.92621
G1 X128.429 Y99.052 E43.95877
G1 X128.758 Y99.390 E43.99030
G1 X129.058 Y99.774 E44.02285
G1 X129.261 Y100.096 E44.04829
G1 X129.437 Y100.437 E44.07394
G1 X129.583 Y100.794 E44.09969
G1 X129.694 Y101.150 E44.12458
G1 X129.791 Y101.627 E44.15711
G1 X129.834 Y102.070 E44.18688
G1 X129.829 Y102.553 E44.21911
G1 X129.732 Y103.226 E44.26454
G1 X129.542 Y103.850 E44.30813
G1 X129.370 Y104.237 E44.33644
G1 X129.137 Y104.645 E44.36785
G1 X128.661 Y105.255 E44.41950
G1 X113.063 Y120.855 E45.89322
G1 X112.666 Y121.201 E45.92842
G1 X112.283 Y121.464 E45.95948
G1 X111.886 Y121.679 E45.98961
G1 X111.488 Y121.846 E46.01847
G1 X111.074 Y121.973 E46.04739
G1 X110.543 Y122.073 E46.08349
G1 X110.139 Y122.104 E46.11054
G1 X109.704 Y122.097 E46.13964
G1 X108.911 Y121.969 E46.19327
G1 X108.353 Y121.784 E46.23257
G1 X107.868 Y121.552 E46.26850
G1 X107.512 Y121.329 E46.29652
G1 X107.011 Y120.927 E46.33947
G1 X91.251 Y105.156 E47.82892
G1 X90.796 Y104.537 E47.88023
G1 X90.601 Y104.178 E47.90751
G1 X90.425 Y103.763 E47.93764
G1 X90.244 Y103.110 E47.98290
G1 X90.176 Y102.623 E48.01577
G1 X90.164 Y102.140 E48.04804
G1 X90.216 Y101.581 E48.08554
G1 X90.316 Y101.116 E48.11734
G1 X90.486 Y100.614 E48.15275
G1 X90.735 Y100.103 E48.19074
G1 X91.057 Y99.616 E48.22969
G1 X91.324 Y99.298 E48.25748
G1 X91.631 Y99.001 E48.28598
G1 X92.018 Y99.370 F3600.000
G1 F900.000
G1 X92.279 Y99.163 E48.30822
G1 X92.643 Y98.928 E48.33716
G1 X92.939 Y98.777 E48.35940
G1 X93.343 Y98.619 E48.38835
G1 X93.664 Y98.530 E48.41059
G1 X94.090 Y98.455 E48.43952
G1 X94.409 Y98.431 E48.46087
G1 X125.724 Y98.438 E50.55286
G1 X126.336 Y98.530 E50.59422
G1 X126.828 Y98.679 E50.62860
G1 X127.133 Y98.811 E50.65076
G1 X127.467 Y98.993 E50.67618
G1 X127.743 Y99.178 E50.69839
G1 X128.076 Y99.454 E50.72730
G1 X128.346 Y99.732 E50.75319
G1 X128.614 Y100.072 E50.78210
G1 X128.791 Y100.352 E50.80421
G1 X128.955 Y100.671 E50.82821
G1 X129.082 Y100.984 E50.85077
G1 X129.178 Y101.294 E50.87243
G1 X129.263 Y101.718 E50.90133
G1 X129.300 Y102.105 E50.92730
G1 X129.294 Y102.527 E50.95549
G1 X129.206 Y103.126 E50.99593
G1 X129.035 Y103.675 E51.03431
G1 X128.887 Y104.005 E51.05851
G1 X128.682 Y104.361 E51.08596
G1 X128.271 Y104.888 E51.13059
G1 X112.703 Y120.458 E52.60148
G1 X112.348 Y120.769 E52.63306
G1 X112.013 Y121.001 E52.66026
G1 X111.664 Y121.191 E52.68679
G1 X111.317 Y121.338 E52.71199
G1 X110.932 Y121.456 E52.73890
G1 X110.461 Y121.543 E52.77091
G1 X110.112 Y121.569 E52.79425
G1 X109.733 Y121.562 E52.81959
G1 X109.057 Y121.453 E52.86534
G1 X108.566 Y121.293 E52.89981
G1 X108.136 Y121.088 E52.93163
G1 X107.833 Y120.900 E52.95546
G1 X107.379 Y120.537 E52.99432
G1 X91.645 Y104.793 E54.48131
G1 X91.241 Y104.238 E54.52717
G1 X91.079 Y103.936 E54.55005
G1 X90.935 Y103.601 E54.57441
G1 X90.772 Y103.018 E54.61484
G1 X90.709 Y102.564 E54.64545
G1 X90.699 Y102.174 E54.67152
G1 X90.748 Y101.648 E54.70683
G1 X90.836 Y101.245 E54.73436
G1 X90.976 Y100.833 E54.76345
G1 X91.209 Y100.354 E54.79906
G1 X91.493 Y99.926 E54.83337
G1 X91.708 Y99.672 E54.85557
G1 X91.975 Y99.412 E54.88050
G1 X92.364 Y99.779 F3600.000
G1 F900.000
G1 X92.582 Y99.604 E54.89920
G1 X92.900 Y99.398 E54.92455
G1 X93.149 Y99.270 E54.94324
G1 X93.502 Y99.130 E54.96859
G1 X93.771 Y99.054 E54.98728
G1 X94.145 Y98.988 E55.01265
G1 X94.419 Y98.967 E55.03101
G1 X125.702 Y98.974 E57.12087
G1 X126.234 Y99.056 E57.15682
G1 X126.631 Y99.177 E57.18457
G1 X126.888 Y99.287 E57.20323
G1 X127.199 Y99.457 E57.22688
G1 X127.431 Y99.614 E57.24560
G1 X127.722 Y99.856 E57.27091
G1 X127.935 Y100.075 E57.29133
G1 X128.170 Y100.373 E57.31664
G1 X128.320 Y100.608 E57.33532
G1 X128.473 Y100.905 E57.35760
G1 X128.581 Y101.173 E57.37690
G1 X128.661 Y101.437 E57.39534
G1 X128.735 Y101.809 E57.42066
G1 X128.764 Y102.113 E57.44105
G1 X128.759 Y102.501 E57.46703
G1 X128.679 Y103.024 E57.50232
G1 X128.530 Y103.497 E57.53546
G1 X128.406 Y103.771 E57.55558
G1 X128.229 Y104.076 E57.57914
G1 X127.881 Y104.520 E57.61684
G1 X112.331 Y120.073 E59.08611
G1 X112.029 Y120.339 E59.11297
G1 X111.743 Y120.538 E59.13621
G1 X111.420 Y120.714 E59.16078
G1 X111.124 Y120.838 E59.18228
G1 X110.791 Y120.939 E59.20547
G1 X110.404 Y121.010 E59.23176
G1 X110.109 Y121.033 E59.25154
G1 X109.762 Y121.027 E59.27474
G1 X109.203 Y120.937 E59.31254
G1 X108.750 Y120.789 E59.34443
G1 X108.404 Y120.624 E59.37001
G1 X108.153 Y120.470 E59.38971
G1 X107.746 Y120.147 E59.42436
G1 X92.038 Y104.429 E60.90887
G1 X91.703 Y103.967 E60.94701
G1 X91.566 Y103.714 E60.96625
G1 X91.435 Y103.407 E60.98854
G1 X91.293 Y102.894 E61.02411
G1 X91.241 Y102.508 E61.05012
G1 X91.233 Y102.208 E61.07018
G1 X91.280 Y101.715 E61.10329
G1 X91.349 Y101.401 E61.12475
G1 X91.465 Y101.051 E61.14939
G1 X91.682 Y100.605 E61.18254
G1 X91.914 Y100.259 E61.21035
G1 X92.093 Y100.045 E61.22899
G1 X92.321 Y99.821 E61.25033
G1 X92.156 Y100.856 F3600.000
G1 F900.000
G1 X92.335 Y100.590 E61.27175
G1 X92.479 Y100.416 E61.28687
G1 X92.711 Y100.187 E61.30865
G1 X92.887 Y100.045 E61.32377
G1 X93.160 Y99.866 E61.34555
G1 X93.361 Y99.762 E61.36067
G1 X93.664 Y99.641 E61.38245
G1 X93.881 Y99.579 E61.39757
G1 X94.202 Y99.520 E61.41935
G1 X94.430 Y99.502 E61.43465
G1 X125.680 Y99.509 E63.52228
G1 X126.129 Y99.582 E63.55267
G1 X126.435 Y99.676 E63.57410
G1 X126.644 Y99.764 E63.58922
G1 X126.930 Y99.920 E63.61100
G1 X127.117 Y100.048 E63.62612
G1 X127.367 Y100.258 E63.64790
G1 X127.525 Y100.420 E63.66302
G1 X127.728 Y100.675 E63.68480
G1 X127.850 Y100.865 E63.69994
G1 X127.991 Y101.138 E63.72042
G1 X128.079 Y101.359 E63.73634
G1 X128.145 Y101.578 E63.75158
G1 X128.207 Y101.898 E63.77336
G1 X128.228 Y102.123 E63.78848
G1 X128.226 Y102.444 E63.80992
G1 X128.162 Y102.884 E63.83959
G1 X128.024 Y103.319 E63.87013
G1 X127.936 Y103.513 E63.88436
G1 X127.775 Y103.791 E63.90579
G1 X127.491 Y104.153 E63.93654
G1 X111.957 Y119.689 E65.40423
G1 X111.709 Y119.909 E65.42635
G1 X111.450 Y120.089 E65.44747
G1 X111.178 Y120.236 E65.46812
G1 X110.955 Y120.330 E65.48428
